dist/img/svg/telegram-icon.svg

<svg width="130" height="130" viewBox="0 0 130 130" fill="none" xmlns="http://www.w3.org/2000/svg">
<path d="M34.922 114V106.412H37.638V104.662H30.19V106.412H32.92V114H34.922ZM45.2205 114V112.25H40.6005V110.136H45.1225V108.386H40.6005V106.412H45.2205V104.662H38.6125V114H45.2205ZM52.4106 114V112.25H48.4626V104.662H46.4746V114H52.4106ZM60.1107 114V112.25H55.4907V110.136H60.0127V108.386H55.4907V106.412H60.1107V104.662H53.5027V114H60.1107ZM65.8868 114.182C67.5808 114.182 68.9108 113.482 69.8628 112.418V108.834H65.4108V110.57H67.8748V111.69C67.4968 112.04 66.7128 112.404 65.8868 112.404C64.1928 112.404 62.9608 111.102 62.9608 109.338C62.9608 107.574 64.1928 106.272 65.8868 106.272C66.8808 106.272 67.6788 106.832 68.0988 107.49L69.7508 106.594C69.0508 105.488 67.8328 104.508 65.8868 104.508C63.1568 104.508 60.9168 106.384 60.9168 109.338C60.9168 112.278 63.1568 114.182 65.8868 114.182ZM78.701 114L76.601 110.444C77.609 110.206 78.645 109.324 78.645 107.672C78.645 105.936 77.455 104.662 75.509 104.662H71.141V114H73.129V110.682H74.585L76.419 114H78.701ZM75.215 108.932H73.129V106.412H75.215C76.013 106.412 76.615 106.888 76.615 107.672C76.615 108.456 76.013 108.932 75.215 108.932ZM88.5451 114L84.9471 104.662H82.4551L78.8431 114H81.1111L81.6991 112.418H85.7031L86.2771 114H88.5451ZM85.1571 110.668H82.2451L83.7011 106.65L85.1571 110.668ZM99.2294 114V104.662H96.4294L94.1614 110.304L91.8934 104.662H89.1074V114H91.0954V107.462L93.7274 114H94.5954L97.2274 107.462V114H99.2294Z" fill="white"/>
<g opacity="0.5" filter="url(#filter0_f)">
<circle cx="65" cy="65" r="35" fill="#0088CC"/>
</g>
<circle cx="65" cy="50" r="40" fill="#0088CC"/>
<path d="M76.75 41.9141L73.0312 59.3047C72.7396 60.5443 72.0651 60.8724 71.0078 60.2891L65.375 56.1328L62.6406 58.7578C62.276 59.1224 61.8932 59.3047 61.4922 59.3047L61.9297 53.5625L72.375 44.1562C72.6302 43.901 72.6302 43.7552 72.375 43.7188C72.1562 43.6458 71.9193 43.7005 71.6641 43.8828L58.7578 52.0312L53.1797 50.2812C52.5599 50.099 52.2682 49.8255 52.3047 49.4609C52.3411 49.0964 52.724 48.7865 53.4531 48.5312L75.1641 40.1094C75.7109 39.9271 76.1484 40 76.4766 40.3281C76.8047 40.6198 76.8958 41.1484 76.75 41.9141Z" fill="white"/>
<defs>
<filter id="filter0_f" x="0" y="0" width="130" height="130" filterUnits="userSpaceOnUse" color-interpolation-filters="sRGB">
<feFlood flood-opacity="0" result="BackgroundImageFix"/>
<feBlend mode="normal" in="SourceGraphic" in2="BackgroundImageFix" result="shape"/>
<feGaussianBlur stdDeviation="15" result="effect1_foregroundBlur"/>
</filter>
</defs>
</svg>

<svg width="130" height="130" viewBox="0 0 130 130" fill="none" xmlns="http://www.w3.org/2000/svg"><path d="M34.922 114v-7.588h2.716v-1.75H30.19v1.75h2.73V114h2.002zm10.299 0v-1.75H40.6v-2.114h4.522v-1.75H40.6v-1.974h4.62v-1.75h-6.608V114h6.608zm7.19 0v-1.75h-3.948v-7.588h-1.988V114h5.936zm7.7 0v-1.75h-4.62v-2.114h4.522v-1.75H55.49v-1.974h4.62v-1.75h-6.608V114h6.608zm5.776.182c1.694 0 3.024-.7 3.976-1.764v-3.584H65.41v1.736h2.464v1.12c-.378.35-1.162.714-1.988.714-1.694 0-2.926-1.302-2.926-3.066 0-1.764 1.232-3.066 2.926-3.066.994 0 1.792.56 2.212 1.218l1.652-.896c-.7-1.106-1.918-2.086-3.864-2.086-2.73 0-4.97 1.876-4.97 4.83 0 2.94 2.24 4.844 4.97 4.844zM78.7 114l-2.1-3.556c1.008-.238 2.044-1.12 2.044-2.772 0-1.736-1.19-3.01-3.136-3.01H71.14V114h1.988v-3.318h1.456L76.419 114h2.282zm-3.486-5.068h-2.086v-2.52h2.086c.798 0 1.4.476 1.4 1.26s-.602 1.26-1.4 1.26zM88.545 114l-3.598-9.338h-2.492L78.843 114h2.268l.588-1.582h4.004l.574 1.582h2.268zm-3.388-3.332h-2.912l1.456-4.018 1.456 4.018zM99.23 114v-9.338h-2.8l-2.268 5.642-2.268-5.642h-2.786V114h1.988v-6.538L93.727 114h.868l2.632-6.538V114h2.002z" fill="#fff"/><g opacity=".5" filter="url(#filter0_f)"><circle cx="65" cy="65" r="35" fill="#08C"/></g><circle cx="65" cy="50" r="40" fill="#08C"/><path d="M76.75 41.914l-3.719 17.39c-.291 1.24-.966 1.568-2.023.985l-5.633-4.156-2.734 2.625c-.365.364-.748.547-1.149.547l.438-5.742 10.445-9.407c.255-.255.255-.4 0-.437-.219-.073-.456-.019-.71.164L58.757 52.03l-5.578-1.75c-.62-.182-.912-.456-.875-.82.036-.365.419-.675 1.148-.93l21.711-8.422c.547-.182.984-.109 1.313.22.328.29.419.82.273 1.585z" fill="#fff"/><defs><filter id="filter0_f" x="0" y="0" width="130" height="130" filterUnits="userSpaceOnUse" color-interpolation-filters="sRGB"><feFlood flood-opacity="0" result="BackgroundImageFix"/><feBlend in="SourceGraphic" in2="BackgroundImageFix" result="shape"/><feGaussianBlur stdDeviation="15" result="effect1_foregroundBlur"/></filter></defs></svg>
